src/vectors/notepad.svg

<svg id="Layer_1" data-name="Layer 1" xmlns="http://www.w3.org/2000/svg" viewBox="0 0 300 300"><defs><style>.cls-1{fill-rule:evenodd;}</style></defs><title>FontTristan</title><path class="cls-1" d="M44.09,86.6937A20.9632,20.9632,0,0,1,65.07,65.7452h57.7654a14.6868,14.6868,0,0,1,8.9818,3.7272l34.5455,34.5455a14.4765,14.4765,0,0,1,3.7272,8.959V233.7618a20.9585,20.9585,0,0,1-20.9478,20.9834H65.0376A20.944,20.944,0,0,1,44.09,233.7968V86.6937ZM212.068,44.7452h21.0438A20.9877,20.9877,0,0,1,254.09,65.7676V212.7452l-20.7035,34.5742c-5.9627,9.9575-15.6493,9.9256-21.5929,0L191.09,212.7452V65.7676A21.0256,21.0256,0,0,1,212.068,44.7452Zm21.0219,131.25V97.2676c0-.0321-21.0219-0.0224-21.0219-0.0224,0.0271,0,.0312,46.3114.0308,78.75H233.09Zm0,21v10.0665l-10.5,17.3335L212.0969,206.933s0-3.78.0009-9.9378H233.09Zm-83.9314-57.75c-0.0151,34.0856-.0388,94.5-0.0163,94.5,0,0-84.0522.0264-84.0522,0.0516L65.07,86.7452H96.59v42a10.49,10.49,0,0,0,10.5308,10.5h42.0378Zm0.01-21c0.0005-1.1194.0008-1.7224,0.0008-1.7224L119.2984,86.7452H117.59v31.5h31.5783Z"/></svg>

<svg id="Layer_1" data-name="Layer 1" xmlns="http://www.w3.org/2000/svg" xmlns:xlink="http://www.w3.org/1999/xlink" viewBox="0 0 300 300"><defs><style>.cls-1{clip-rule:evenodd;}.cls-2{fill-rule:evenodd;}.cls-3{clip-path:url(#clip-path);}.cls-4{clip-path:url(#clip-path-2);}.cls-5{clip-path:url(#clip-path-3);}.cls-6{clip-path:url(#clip-path-4);}.cls-7{clip-path:url(#clip-path-5);}</style><clipPath id="clip-path"><path class="cls-1" d="M-1062.91,264.78A21.92,21.92,0,0,0-1041,242.86a21.92,21.92,0,0,0-21.92-21.92,21.92,21.92,0,0,0-21.92,21.92A21.92,21.92,0,0,0-1062.91,264.78Zm98.64,0a21.92,21.92,0,0,0,21.92-21.92,21.92,21.92,0,0,0-21.92-21.92,21.92,21.92,0,0,0-21.92,21.92A21.92,21.92,0,0,0-964.27,264.78Zm-108.45-109.6h128.61l10.38-55.56-154-9.42Zm-20.15-87.26,174.32,10.69A9.38,9.38,0,0,1-909.64,90l-14.27,76.37a13.69,13.69,0,0,1-13,10.75h-130.8l2.53,11h122.78a11,11,0,0,1,11,11,11,11,0,0,1-11,11h-131.52a11,11,0,0,1-10.68-8.5l-31.7-137.37-17.14-8.61a11,11,0,0,1-4.92-14.7,11,11,0,0,1,14.7-4.92l21.75,10.85a11,11,0,0,1,5.79,7.34Z"/></clipPath><clipPath id="clip-path-2"><path class="cls-1" d="M-570.91,56.26h-22v-11a11,11,0,0,0-11-11,11,11,0,0,0-11,11v11h-22v-11a11,11,0,0,0-11-11,11,11,0,0,0-11,11v11h-22v-11a11,11,0,0,0-11-11,11,11,0,0,0-11,11v11H-703a33,33,0,0,0-32.95,33v143a33,33,0,0,0,32.95,33h154.11a33,33,0,0,0,32.95-33v-143a33,33,0,0,0-32.95-33h-0.05v-11a11,11,0,0,0-11-11,11,11,0,0,0-11,11v11Zm33,77v99a11,11,0,0,1-10.95,11H-703a11,11,0,0,1-10.95-11v-99h176Zm0-22v-22a11,11,0,0,0-10.95-11h-0.05a11,11,0,0,1-11,11,11,11,0,0,1-11-11h-22a11,11,0,0,1-11,11,11,11,0,0,1-11-11h-22a11,11,0,0,1-11,11,11,11,0,0,1-11-11h-22a11,11,0,0,1-11,11,11,11,0,0,1-11-11H-703a11,11,0,0,0-10.95,11v22h176Z"/></clipPath><clipPath id="clip-path-3"><path class="cls-1" d="M-280.14,160A51.14,51.14,0,0,1-229,108.85,51.14,51.14,0,0,1-177.86,160,51.14,51.14,0,0,1-229,211.12,51.14,51.14,0,0,1-280.14,160ZM-321,103.74V226.44s184.08,0,184.08,0V103.76s-37.36,0-37.36,0a8.15,8.15,0,0,1-7-4.73l-10.44-26h-74.51l-10.36,25.89a8.18,8.18,0,0,1-7,4.79H-321Zm28.63-20.45,8.47-21.18c2.1-5.25,8.39-9.5,14-9.5H-188c5.62,0,11.89,4.27,14,9.5l8.47,21.18H-137a20.46,20.46,0,0,1,20.46,20.48V226.44A20.47,20.47,0,0,1-137,246.92H-321a20.46,20.46,0,0,1-20.46-20.48V103.76A20.47,20.47,0,0,1-321,83.28h28.63ZM-199.67,151a30.68,30.68,0,0,1,1.35,9A30.68,30.68,0,0,1-229,190.67,30.68,30.68,0,0,1-259.68,160,30.68,30.68,0,0,1-229,129.31a30.68,30.68,0,0,1,9,1.35,15.34,15.34,0,0,0-9,14A15.34,15.34,0,0,0-213.66,160,15.34,15.34,0,0,0-199.67,151Z"/></clipPath><clipPath id="clip-path-4"><path class="cls-1" d="M44.09,86.69a21,21,0,0,1,21-20.95h57.77a14.69,14.69,0,0,1,9,3.73L166.36,104a14.48,14.48,0,0,1,3.73,9V233.76a21,21,0,0,1-20.95,21H65A20.94,20.94,0,0,1,44.09,233.8V86.69Zm168-41.95h21a21,21,0,0,1,21,21v147l-20.7,34.57c-6,10-15.65,9.93-21.59,0l-20.7-34.57v-147A21,21,0,0,1,212.07,44.75Zm21,131.25V97.27s-21,0-21,0,0,46.31,0,78.75h21Zm0,21v10.07l-10.5,17.33L212.1,206.93s0-3.78,0-9.94h21Zm-83.93-57.75c0,34.09,0,94.5,0,94.5s-84.05,0-84.05.05l0-147.05H96.59v42a10.49,10.49,0,0,0,10.53,10.5h42Zm0-21c0-1.12,0-1.72,0-1.72L119.3,86.75h-1.71v31.5h31.58Z"/></clipPath><clipPath id="clip-path-5"><rect x="-6024.91" y="-6024.25" width="9324" height="18900"/></clipPath></defs><title>FontTristan</title><path class="cls-2" d="M-1062.91,264.78A21.92,21.92,0,0,0-1041,242.86a21.92,21.92,0,0,0-21.92-21.92,21.92,21.92,0,0,0-21.92,21.92A21.92,21.92,0,0,0-1062.91,264.78Zm98.64,0a21.92,21.92,0,0,0,21.92-21.92,21.92,21.92,0,0,0-21.92-21.92,21.92,21.92,0,0,0-21.92,21.92A21.92,21.92,0,0,0-964.27,264.78Zm-108.45-109.6h128.61l10.38-55.56-154-9.42Zm-20.15-87.26,174.32,10.69A9.38,9.38,0,0,1-909.64,90l-14.27,76.37a13.69,13.69,0,0,1-13,10.75h-130.8l2.53,11h122.78a11,11,0,0,1,11,11,11,11,0,0,1-11,11h-131.52a11,11,0,0,1-10.68-8.5l-31.7-137.37-17.14-8.61a11,11,0,0,1-4.92-14.7,11,11,0,0,1,14.7-4.92l21.75,10.85a11,11,0,0,1,5.79,7.34Z"/><g class="cls-3"><rect x="-6416.68" y="-10503.03" width="9732.13" height="19727.29"/></g><path class="cls-2" d="M-570.91,56.26h-22v-11a11,11,0,0,0-11-11,11,11,0,0,0-11,11v11h-22v-11a11,11,0,0,0-11-11,11,11,0,0,0-11,11v11h-22v-11a11,11,0,0,0-11-11,11,11,0,0,0-11,11v11H-703a33,33,0,0,0-32.95,33v143a33,33,0,0,0,32.95,33h154.11a33,33,0,0,0,32.95-33v-143a33,33,0,0,0-32.95-33h-0.05v-11a11,11,0,0,0-11-11,11,11,0,0,0-11,11v11Zm33,77v99a11,11,0,0,1-10.95,11H-703a11,11,0,0,1-10.95-11v-99h176Zm0-22v-22a11,11,0,0,0-10.95-11h-0.05a11,11,0,0,1-11,11,11,11,0,0,1-11-11h-22a11,11,0,0,1-11,11,11,11,0,0,1-11-11h-22a11,11,0,0,1-11,11,11,11,0,0,1-11-11h-22a11,11,0,0,1-11,11,11,11,0,0,1-11-11H-703a11,11,0,0,0-10.95,11v22h176Z"/><g class="cls-4"><rect x="-9733.91" y="-15288.74" width="9768" height="19800"/></g><path class="cls-2" d="M-280.14,160A51.14,51.14,0,0,1-229,108.85,51.14,51.14,0,0,1-177.86,160,51.14,51.14,0,0,1-229,211.12,51.14,51.14,0,0,1-280.14,160ZM-321,103.74V226.44s184.08,0,184.08,0V103.76s-37.36,0-37.36,0a8.15,8.15,0,0,1-7-4.73l-10.44-26h-74.51l-10.36,25.89a8.18,8.18,0,0,1-7,4.79H-321Zm28.63-20.45,8.47-21.18c2.1-5.25,8.39-9.5,14-9.5H-188c5.62,0,11.89,4.27,14,9.5l8.47,21.18H-137a20.46,20.46,0,0,1,20.46,20.48V226.44A20.47,20.47,0,0,1-137,246.92H-321a20.46,20.46,0,0,1-20.46-20.48V103.76A20.47,20.47,0,0,1-321,83.28h28.63ZM-199.67,151a30.68,30.68,0,0,1,1.35,9A30.68,30.68,0,0,1-229,190.67,30.68,30.68,0,0,1-259.68,160,30.68,30.68,0,0,1-229,129.31a30.68,30.68,0,0,1,9,1.35,15.34,15.34,0,0,0-9,14A15.34,15.34,0,0,0-213.66,160,15.34,15.34,0,0,0-199.67,151Z"/><g class="cls-5"><rect x="-842.64" y="-14695.13" width="9081.82" height="18409.09"/></g><path class="cls-2" d="M44.09,86.69a21,21,0,0,1,21-20.95h57.77a14.69,14.69,0,0,1,9,3.73L166.36,104a14.48,14.48,0,0,1,3.73,9V233.76a21,21,0,0,1-20.95,21H65A20.94,20.94,0,0,1,44.09,233.8V86.69Zm168-41.95h21a21,21,0,0,1,21,21v147l-20.7,34.57c-6,10-15.65,9.93-21.59,0l-20.7-34.57v-147A21,21,0,0,1,212.07,44.75Zm21,131.25V97.27s-21,0-21,0,0,46.31,0,78.75h21Zm0,21v10.07l-10.5,17.33L212.1,206.93s0-3.78,0-9.94h21Zm-83.93-57.75c0,34.09,0,94.5,0,94.5s-84.05,0-84.05.05l0-147.05H96.59v42a10.49,10.49,0,0,0,10.53,10.5h42Zm0-21c0-1.12,0-1.72,0-1.72L119.3,86.75h-1.71v31.5h31.58Z"/><g class="cls-6"><rect x="-6024.91" y="-6024.25" width="9324" height="18900"/><g class="cls-7"><rect x="17.84" y="18.5" width="262.5" height="262.53"/></g></g></svg>
